X: 81
T: Pollonesse #81
M: 3/4
L: 1/16
K: D
Q:120
d2f2 e2d2 cdcB|A2AB A2G2 F2D2|D2B2 B2G2 G2E2|E2A2 A2F2 F2D2|
D2B2 B2G2 G2E2|E2A2 A2F2 F2D2|DEFG ABcd e2g2|fedc d4 D4:|
A2f2 f2d2 d2B2|B2e2 e2c2 c2A2|A2f2 f2d2 d2B2|B2e2 e2c2 c2A2|D2B2 B2G2 G2E2|
E2A2 A2F2 F2D2|D2B2 B2G2 G2E2|E2A2 A2F2 F2D2|DEFG ABcd e2g2|fedc d4 D4:|

